X:7743
T:Un Quebecois  Caracas (D. Thonon)
O:england
C:Ad Vielle Que Pourra: Musaique
M:3/4
L:1/8
K:C
E GB|d3 c Bc|Bc ~BG EG|A2 AB ~AF|D3E ~DC|\
B,G, B,D GB|dc BA Gd|eg ~ec Gc|d3E GB|
d3 c Bc|Bc ~BB EG|A2 AB ~AF|D3E ~DC|\
B,G, B,D GB|dc BA GB|ce/c/ Gc EG|C3:|
zE2|EA Bc ~BA|Bd cB Ac|Bd ~cB cd|ec Ac EA|\
CAe dc BA|F2F3E|Dd ~cB GB|E6|
ec AE CAE|^F2 F4|E^G AB cd|e6|\
ba ~fd Bd|e~c AE CE|^F2 FA ^GB|A4:|
